X: 11060
T: Dublin, The
R: reel
M: 4/4
K: Dmajor
dF F2 dfec|dF F2 AFEF|dF F2 dfed|cABG AFEF|
dF F2 dfec|dF F2 AFEF|d3c dfed|cABG ABcd||
eA A2 eAfA|eA A2 BAFA|eA A2 egfe|dBcA BAFA|
eA A2 eAfA|eA A2 BAFA|(3efe df egfe|dBcA BAFA||
d3c dF A2|dcdA FDFA|d2dc dfed|cABG AFEF|
d3c dF A2|dcdA FDFA|dcdf e2ag|fdBc d2||

